Newaita-dark/actions/16/draw-connector.svg

<svg height="16" viewBox="0 0 16 16" width="16" xmlns="http://www.w3.org/2000/svg"><g fill="#e0e0e0"><path d="m8.515625 4.246094c-.792969.003906-1.621094.21875-2.398437.667968-2.0625 1.1875-2.910157 3.554688-1.902344 5.300782.101562.175781.222656.34375.355468.496094h.390626c.183593 0 .332031.144531.332031.328124v.285157c1.214843.757812 2.949219.765625 4.464843-.109375 2.0625-1.191406 2.910157-3.554688 1.902344-5.300782-.101562-.179687-.21875-.34375-.351562-.496093h-.394532c-.183593 0-.328124-.148438-.328124-.332031v-.28125c-.597657-.371094-1.316407-.5625-2.070313-.558594zm.035156.660156c1.070313 0 2.035157.46875 2.539063 1.335938.824218 1.429687.082031 3.390624-1.664063 4.398437-1.746093 1.007813-3.8125.671875-4.636719-.757813-.828124-1.429687-.085937-3.390624 1.660157-4.398437.683593-.394531 1.414062-.582031 2.101562-.578125zm0 0"/><path d="m9.261719 2.109375v4.628906h4.628906v-3.96875c0-.363281-.292969-.660156-.660156-.660156zm1.324219 1.324219h1.652343c.183594 0 .332031.148437.332031.328125v1.65625h-1.984374zm0 0"/><path d="m6.613281 14.015625v-4.628906h-4.628906v3.96875c0 .367187.296875.660156.660156.660156zm-1.320312-1.320313h-1.65625c-.179688 0-.328125-.148437-.328125-.332031v-1.652343h1.984375zm0 0"/></g></svg>

<?xml version="1.0" encoding="UTF-8"?>
<svg xmlns="http://www.w3.org/2000/svg" xmlns:xlink="http://www.w3.org/1999/xlink" width="16px" height="16px" viewBox="0 0 16 16" version="1.1">
<g id="surface1">
<path style=" stroke:none;fill-rule:nonzero;fill:rgb(87.843138%,87.843138%,87.843138%);fill-opacity:1;" d="M 8.515625 4.246094 C 7.722656 4.25 6.894531 4.464844 6.117188 4.914062 C 4.054688 6.101562 3.207031 8.46875 4.214844 10.214844 C 4.316406 10.390625 4.4375 10.558594 4.570312 10.710938 L 4.960938 10.710938 C 5.144531 10.710938 5.292969 10.855469 5.292969 11.039062 L 5.292969 11.324219 C 6.507812 12.082031 8.242188 12.089844 9.757812 11.214844 C 11.820312 10.023438 12.667969 7.660156 11.660156 5.914062 C 11.558594 5.734375 11.441406 5.570312 11.308594 5.417969 L 10.914062 5.417969 C 10.730469 5.417969 10.585938 5.269531 10.585938 5.085938 L 10.585938 4.804688 C 9.988281 4.433594 9.269531 4.242188 8.515625 4.246094 Z M 8.550781 4.90625 C 9.621094 4.90625 10.585938 5.375 11.089844 6.242188 C 11.914062 7.671875 11.171875 9.632812 9.425781 10.640625 C 7.679688 11.648438 5.613281 11.3125 4.789062 9.882812 C 3.960938 8.453125 4.703125 6.492188 6.449219 5.484375 C 7.132812 5.089844 7.863281 4.902344 8.550781 4.90625 Z M 8.550781 4.90625 "/>
<path style=" stroke:none;fill-rule:nonzero;fill:rgb(87.843138%,87.843138%,87.843138%);fill-opacity:1;" d="M 9.261719 2.109375 L 9.261719 6.738281 L 13.890625 6.738281 L 13.890625 2.769531 C 13.890625 2.40625 13.597656 2.109375 13.230469 2.109375 Z M 10.585938 3.433594 L 12.238281 3.433594 C 12.421875 3.433594 12.570312 3.582031 12.570312 3.761719 L 12.570312 5.417969 L 10.585938 5.417969 Z M 10.585938 3.433594 "/>
<path style=" stroke:none;fill-rule:nonzero;fill:rgb(87.843138%,87.843138%,87.843138%);fill-opacity:1;" d="M 6.613281 14.015625 L 6.613281 9.386719 L 1.984375 9.386719 L 1.984375 13.355469 C 1.984375 13.722656 2.28125 14.015625 2.644531 14.015625 Z M 5.292969 12.695312 L 3.636719 12.695312 C 3.457031 12.695312 3.308594 12.546875 3.308594 12.363281 L 3.308594 10.710938 L 5.292969 10.710938 Z M 5.292969 12.695312 "/>
</g>
</svg>
